packages/ndla-icons/svg/contentType/external-learning-resource.svg

<?xml version="1.0" encoding="UTF-8"?>
<svg width="24px" height="24px" viewBox="0 0 24 24" version="1.1" xmlns="http://www.w3.org/2000/svg" xmlns:xlink="http://www.w3.org/1999/xlink" data-license="Apache License 2.0" data-source="Material Design">
    <g id="Page-1" stroke="none" stroke-width="1" fill="none" fill-rule="evenodd">
        <g id="delte-ressurser">
            <g id="Shape">
                <polygon points="0 0 24 0 24 24 0 24"></polygon>
                <path d="M3.9,12 C3.9,10.29 5.29,8.9 7,8.9 L11,8.9 L11,7 L7,7 C4.24,7 2,9.24 2,12 C2,14.76 4.24,17 7,17 L11,17 L11,15.1 L7,15.1 C5.29,15.1 3.9,13.71 3.9,12 Z M8,13 L16,13 L16,11 L8,11 L8,13 Z M17,7 L13,7 L13,8.9 L17,8.9 C18.71,8.9 20.1,10.29 20.1,12 C20.1,13.71 18.71,15.1 17,15.1 L13,15.1 L13,17 L17,17 C19.76,17 22,14.76 22,12 C22,9.24 19.76,7 17,7 Z" fill="currentColor" fill-rule="nonzero"></path>
            </g>
        </g>
    </g>
</svg>

<svg xmlns="http://www.w3.org/2000/svg" data-license="Apache License 2.0" data-source="Material Design" viewBox="0 0 24 24">
  <g fill="none" fill-rule="evenodd">
    <path d="M0 0h24v24H0z"/>
    <path fill="currentColor" fill-rule="nonzero" d="M3.9 12c0-1.7 1.4-3.1 3.1-3.1h4V7H7a5 5 0 0 0 0 10h4v-1.9H7A3.1 3.1 0 0 1 3.9 12ZM8 13h8v-2H8v2Zm9-6h-4v1.9h4a3.1 3.1 0 0 1 0 6.2h-4V17h4a5 5 0 0 0 0-10Z"/>
  </g>
</svg>
